assets/icons/television.svg

<?xml version="1.0" encoding="UTF-8" standalone="no"?>
<svg viewBox="0 0 24 24" height="24" width="24" version="1.1" id="svg8" sodipodi:docname="television.svg" inkscape:version="1.1 (ce6663b3b7, 2021-05-25)"
   xmlns:inkscape="http://www.inkscape.org/namespaces/inkscape"
   xmlns:sodipodi="http://sodipodi.sourceforge.net/DTD/sodipodi-0.dtd"
   xmlns="http://www.w3.org/2000/svg"
   xmlns:svg="http://www.w3.org/2000/svg"
   xmlns:rdf="http://www.w3.org/1999/02/22-rdf-syntax-ns#"
   xmlns:cc="http://creativecommons.org/ns#"
   xmlns:dc="http://purl.org/dc/elements/1.1/">
   <metadata id="metadata14">
      <rdf:RDF>
         <cc:Work rdf:about="">
            <dc:format>image/svg+xml</dc:format>
            <dc:type rdf:resource="http://purl.org/dc/dcmitype/StillImage" />
         </cc:Work>
      </rdf:RDF>
   </metadata>
   <defs id="defs12" />
   <sodipodi:namedview pagecolor="#ffffff" bordercolor="#666666" borderopacity="1" objecttolerance="10" gridtolerance="10" guidetolerance="10" inkscape:pageopacity="0" inkscape:pageshadow="2" inkscape:window-width="1920" inkscape:window-height="1016" id="namedview10" showgrid="true" inkscape:zoom="8" inkscape:cx="-3.1875" inkscape:cy="12.1875" inkscape:window-x="0" inkscape:window-y="27" inkscape:window-maximized="1" inkscape:current-layer="svg8" inkscape:document-rotation="0" inkscape:pagecheckerboard="0">
      <inkscape:grid type="xygrid" id="grid831" />
   </sodipodi:namedview>
   <path id="rect30" style="color:#000000;fill:#808080;fill-rule:evenodd;stroke-linecap:square;stroke-linejoin:round;-inkscape-stroke:none" d="M 9 3.2929688 L 8.2929688 4 L 8.6464844 4.3535156 L 11.292969 7 L 5.5 7 C 4.8453689 7 4.2447361 7.1943777 3.7851562 7.5390625 C 3.3255766 7.8837473 3 8.4055997 3 9 L 3 18 C 3 18.5944 3.3255765 19.116253 3.7851562 19.460938 C 4.2447361 19.805622 4.8453689 20 5.5 20 L 18.5 20 C 19.154631 20 19.755264 19.805622 20.214844 19.460938 C 20.674424 19.116253 21 18.5944 21 18 L 21 9 C 21 8.4055997 20.674424 7.8837473 20.214844 7.5390625 C 19.755264 7.1943777 19.154631 7 18.5 7 L 12.707031 7 L 15.353516 4.3535156 L 15.707031 4 L 15 3.2929688 L 14.646484 3.6464844 L 12 6.2929688 L 9.3535156 3.6464844 L 9 3.2929688 z M 5.5 8 L 16.5 8 C 16.953368 8 17.351815 8.140326 17.615234 8.3378906 C 17.878654 8.5354553 18 8.7634012 18 9 L 18 18 C 18 18.236599 17.878654 18.464545 17.615234 18.662109 C 17.351815 18.859674 16.953368 19 16.5 19 L 5.5 19 C 5.0466322 19 4.6481851 18.859674 4.3847656 18.662109 C 4.1213461 18.464545 4 18.236599 4 18 L 4 9 C 4 8.7634012 4.1213461 8.5354553 4.3847656 8.3378906 C 4.6481851 8.140326 5.0466322 8 5.5 8 z M 19.5 10 A 0.5 0.5 0 0 1 20 10.5 A 0.5 0.5 0 0 1 19.5 11 A 0.5 0.5 0 0 1 19 10.5 A 0.5 0.5 0 0 1 19.5 10 z M 19.5 12 A 0.5 0.5 0 0 1 20 12.5 A 0.5 0.5 0 0 1 19.5 13 A 0.5 0.5 0 0 1 19 12.5 A 0.5 0.5 0 0 1 19.5 12 z " />
</svg>

<svg height="24" width="24" xmlns="http://www.w3.org/2000/svg"><path style="color:#000;fill:gray;stroke-linecap:square;stroke-linejoin:round;-inkscape-stroke:none" d="M9 3.293 8.293 4l.353.354L11.293 7H5.5c-.655 0-1.255.194-1.715.54C3.325 7.883 3 8.405 3 9v9c0 .594.326 1.116.785 1.46.46.346 1.06.54 1.715.54h13c.655 0 1.255-.194 1.715-.54.46-.344.785-.866.785-1.46V9c0-.594-.326-1.116-.785-1.46-.46-.346-1.06-.54-1.715-.54h-5.793l2.647-2.646.353-.354L15 3.293l-.354.353L12 6.293 9.354 3.646 9 3.293zM5.5 8h11c.453 0 .852.14 1.115.338.264.197.385.425.385.662v9c0 .237-.121.465-.385.662-.263.198-.662.338-1.115.338h-11c-.453 0-.852-.14-1.115-.338C4.12 18.465 4 18.237 4 18V9c0-.237.121-.465.385-.662C4.648 8.14 5.047 8 5.5 8zm14 2a.5.5 0 0 1 .5.5.5.5 0 0 1-.5.5.5.5 0 0 1-.5-.5.5.5 0 0 1 .5-.5zm0 2a.5.5 0 0 1 .5.5.5.5 0 0 1-.5.5.5.5 0 0 1-.5-.5.5.5 0 0 1 .5-.5z"/></svg>
